svg/affine-light.svg

<svg xmlns="http://www.w3.org/2000/svg" xml:space="preserve" viewBox="0 0 512 512"><path d="M508.1 438.3c-8.9-15.4-23.6-41-38.2-66.2-4.4-7.7-8.8-15.3-13-22.6-8.7-15-16.6-28.7-22.2-38.5-39.1-67.6-116.1-201.4-154.5-267.5-11.9-18.4-39.3-17-49.5 2.1-11.7 20.1-24.4 42.1-37.9 65.4-4.3 7.4-8.6 14.9-13 22.5-56 97-121.6 210.6-168.3 291.5-2.4 4.3-6.8 11.4-9 16-3.9 8.4-3.1 18.9 1.8 26.7 5.5 9.2 15.9 14.3 26.4 13.7h100.7c121.2 0 306.4.1 351.9 0 22 .2 35.8-24.1 24.8-43.1m-261-85.9-22.3-38.7c-3.9-6.8 1-15.3 8.8-15.3h44.6c7.9 0 12.8 8.5 8.8 15.3l-22.3 38.7c-3.8 6.8-13.6 6.8-17.6 0m-37.4-72q-2.7-7.05-4.8-14.4l73.8 14.4zm33.8 101.7c-3.1 4-6.5 7.7-10 11.3L209 322.3zm71.2-80c5 .7 9.9 1.8 14.8 3.1L280.2 362zm-114.3-60.3c-.8-7.2-1.1-14.4-1.1-21.7l97.5 47.6zm-11.5 71.3 25.8 96.4c-5.8 4.3-11.9 8.2-18.3 11.8zm163.9.2c6.6 2.9 13.1 6.2 19.4 9.9l-89.9 60.7zM201.6 189.4c1.8-13.2 4.5-26.2 7.9-38.7l148.1 128.8zm-32.8 245.3c-12.3 5.1-25 9.2-37.4 12.5l37.4-192.6zm228.8-94.2c10.5 8.2 20.4 17.1 29.6 26.2l-185.6 63.9zM262.4 78.3c27.3 47.4 67 116.1 104.7 181.5l-141-141c8.3-14.3 16.1-28 23.4-40.5 2.9-4.9 10.1-4.9 12.9 0M42.2 437.5c7.8-13.4 18.4-31.8 20.8-36 22.5-38.9 52.8-91.4 84-145.5L95.4 448.7H48.7c-5.8 0-9.4-6.2-6.5-11.2m421.1 11.2H253.6L446.4 397c10.1 17.5 18.2 31.5 23.4 40.5 2.9 5-.7 11.2-6.5 11.2" style="fill:#fff"/></svg>

<?xml version="1.0" encoding="utf-8"?>
<!-- Generator: Adobe Illustrator 28.2.0, SVG Export Plug-In . SVG Version: 6.00 Build 0)  -->
<svg version="1.1" id="Layer_2_00000000210670527777631510000014693416164240350121_"
	 xmlns="http://www.w3.org/2000/svg" xmlns:xlink="http://www.w3.org/1999/xlink" x="0px" y="0px" viewBox="0 0 512 512"
	 style="enable-background:new 0 0 512 512;" xml:space="preserve">
<style type="text/css">
	.st0{fill:#FFFFFF;}
</style>
<path id="logo-black" class="st0" d="M508.1,438.3c-8.9-15.4-23.6-41-38.2-66.2c-4.4-7.7-8.8-15.3-13-22.6
	c-8.7-15-16.6-28.7-22.2-38.5c-39.1-67.6-116.1-201.4-154.5-267.5c-11.9-18.4-39.3-17-49.5,2.1C219,65.7,206.3,87.7,192.8,111
	c-4.3,7.4-8.6,14.9-13,22.5c-56,97-121.6,210.6-168.3,291.5c-2.4,4.3-6.8,11.4-9,16c-3.9,8.4-3.1,18.9,1.8,26.7
	c5.5,9.2,15.9,14.3,26.4,13.7c12.7,0,39.7,0,74.6,0c8.3,0,17,0,26.1,0c121.2,0,306.4,0.1,351.9,0
	C505.3,481.6,519.1,457.3,508.1,438.3L508.1,438.3z M247.1,352.4l-22.3-38.7c-3.9-6.8,1-15.3,8.8-15.3h44.6c7.9,0,12.8,8.5,8.8,15.3
	l-22.3,38.7C260.9,359.2,251.1,359.2,247.1,352.4L247.1,352.4z M209.7,280.4c-1.8-4.7-3.4-9.5-4.8-14.4l73.8,14.4H209.7z
	 M243.5,382.1c-3.1,4-6.5,7.7-10,11.3L209,322.3L243.5,382.1L243.5,382.1z M314.7,302.1c5,0.7,9.9,1.8,14.8,3.1L280.2,362
	L314.7,302.1L314.7,302.1z M200.4,241.8c-0.8-7.2-1.1-14.4-1.1-21.7l97.5,47.6L200.4,241.8L200.4,241.8z M188.9,313.1l25.8,96.4
	c-5.8,4.3-11.9,8.2-18.3,11.8L188.9,313.1L188.9,313.1z M352.8,313.3c6.6,2.9,13.1,6.2,19.4,9.9l-89.9,60.7L352.8,313.3z
	 M201.6,189.4c1.8-13.2,4.5-26.2,7.9-38.7l148.1,128.8L201.6,189.4L201.6,189.4z M168.8,434.7c-12.3,5.1-25,9.2-37.4,12.5
	l37.4-192.6L168.8,434.7L168.8,434.7z M397.6,340.5c10.5,8.2,20.4,17.1,29.6,26.2l-185.6,63.9L397.6,340.5L397.6,340.5z M262.4,78.3
	c27.3,47.4,67,116.1,104.7,181.5l-141-141c8.3-14.3,16.1-28,23.4-40.5C252.4,73.4,259.6,73.4,262.4,78.3L262.4,78.3z M42.2,437.5
	c7.8-13.4,18.4-31.8,20.8-36c22.5-38.9,52.8-91.4,84-145.5L95.4,448.7c-18.5,0-34.5,0-46.7,0C42.9,448.7,39.3,442.5,42.2,437.5
	L42.2,437.5z M463.3,448.7c-43.1,0-126.7,0-209.7,0L446.4,397c10.1,17.5,18.2,31.5,23.4,40.5C472.7,442.5,469.1,448.7,463.3,448.7
	L463.3,448.7z"/>
</svg>
